X: 3
T: A Week In January
R: reel
M: 4/4
L: 1/8
K: Gmaj
BA|:G2 GA Bd ba|agfg d2 gf|eGce dGBd|cBAG A2 BA|
G2 GA Bd ba|agfg d2 gf|eGce dGBd|1 cAFA G2 BA:|2 cAFA G2 Bc||
|:d2 de dGBd|ecfd g2 ge|d2 de d2 Bd|cBAG A2 Bc|
d2 de dGBd|ecfd g2 ge|dbag dcBd|1 cAFA G2 Bc:|2 cAFA G4||

